icons/unrealengine/unrealengine-original.svg

<svg version="1.1" viewBox="0 0 128 128" xmlns="http://www.w3.org/2000/svg">
 <g fill="#fff" fill-rule="evenodd">
  <path d="m100.61 72.875c-1.0625 5.1211-5.7852 18.266-20.852 25.379l-6.0508-6.8008-10.211 10.262c-11.773-0.15625-22.801-5.8125-29.797-15.285 1.0859 0.33984 2.2031 0.55078 3.3359 0.62891 1.6719 0.03125 3.4844-0.58203 3.4844-3.3906v-27.695c0.046874-1.4414-0.58984-2.8242-1.7188-3.7227-1.1328-0.90234-2.6211-1.2148-4.0156-0.84766-4.7266 1.0898-8.5039 12.883-8.5039 12.883-0.10547-11.02 4.6406-21.531 12.98-28.738 5.4219-4.6914 12.062-7.7539 19.148-8.8359-5.1602 2.9414-8.0586 7.7383-8.0586 11.762 0 6.4766 3.8984 5.6914 5.0547 4.7383v37.379c0.19531 0.46875 0.45312 0.91016 0.76172 1.3164 1.0469 1.4453 2.7266 2.2969 4.5156 2.2852 3.9023 0 8.9688-4.457 8.9688-4.457v-30.258c0-3.0781-2.3203-6.793-4.6445-8.0703 0 0 4.3008-0.76172 7.6211 1.7773 0.62109-0.76172 1.2852-1.4883 1.9844-2.1836 7.7461-7.5977 15.039-9.7617 21.117-10.844 0 0-11.047 8.6836-11.047 20.332 0 8.6641 0.22266 29.789 0.22266 29.789 4.0977 3.957 10.195-1.7578 15.703-7.4023z"/>
  <path d="m64 2.3828c-34.027 0-61.617 27.59-61.617 61.617s27.59 61.617 61.617 61.617 61.617-27.59 61.617-61.617-27.59-61.617-61.617-61.617zm0 120.77c-32.668 0-59.152-26.484-59.152-59.152 0.003906-32.668 26.488-59.152 59.156-59.148 32.668 0 59.148 26.484 59.148 59.152s-26.484 59.152-59.152 59.152z"/>
 </g>
</svg>

<svg viewBox="0 0 128 128" xmlns="http://www.w3.org/2000/svg">
  <g fill="#fff" fill-rule="evenodd">
    <path d="M100.61 72.875c-1.063 5.121-5.785 18.266-20.852 25.379l-6.05-6.8-10.212 10.261A37.67 37.67 0 0 1 33.7 86.43c1.086.34 2.203.551 3.336.63 1.672.03 3.485-.583 3.485-3.391V55.974a4.57 4.57 0 0 0-5.735-4.57c-4.726 1.089-8.504 12.882-8.504 12.882a37.509 37.509 0 0 1 12.98-28.738 38.043 38.043 0 0 1 19.148-8.836c-5.16 2.942-8.058 7.739-8.058 11.762 0 6.477 3.898 5.692 5.054 4.739v37.379c.196.468.453.91.762 1.316a5.528 5.528 0 0 0 4.516 2.285c3.902 0 8.968-4.457 8.968-4.457V49.478c0-3.078-2.32-6.793-4.644-8.07 0 0 4.3-.762 7.621 1.777a28.338 28.338 0 0 1 1.984-2.183c7.747-7.598 15.04-9.762 21.117-10.844 0 0-11.047 8.683-11.047 20.332 0 8.664.223 29.789.223 29.789 4.098 3.957 10.195-1.758 15.703-7.403z"/>
    <path d="M64 2.383C29.973 2.383 2.383 29.973 2.383 64S29.973 125.617 64 125.617 125.617 98.027 125.617 64 98.027 2.383 64 2.383zm0 120.77C31.332 123.153 4.848 96.669 4.848 64 4.852 31.333 31.336 4.849 64.004 4.853c32.668 0 59.148 26.484 59.148 59.152S96.668 123.157 64 123.157z"/>
  </g>
</svg>
